; generated by PrusaSlicer 2.3.3+win64 on 2022-02-19 at 11:42:53 UTC

; 

; external perimeters extrusion width = 0.45mm
; perimeters extrusion width = 0.45mm
; infill extrusion width = 0.45mm
; solid infill extrusion width = 0.45mm
; top infill extrusion width = 0.40mm
; first layer extrusion width = 0.42mm

M201 X9000 Y9000 Z500 E10000 ; sets maximum accelerations, mm/sec^2
M203 X500 Y500 Z12 E120 ; sets maximum feedrates, mm/sec
M204 P1500 R1500 T1500 ; sets acceleration (P, T) and retract acceleration (R), mm/sec^2
M205 X10.00 Y10.00 Z0.20 E2.50 ; sets the jerk limits, mm/sec
M205 S0 T0 ; sets the minimum extruding and travel feed rate, mm/sec
M107
;TYPE:Custom
M104 S242 ; set extruder temp
M140 S75 ; set bed temp
M190 S75 ; wait for bed temp
M109 S242 ; wait for extruder temp

G28 ; home all axes
G29 ; autolevel
G1 Z5 F5000 ; lift nozzle
G1 Y0 F9001 ; go to front edge of the bed
G92 E0.0 ; reset extruder position
G21 ; set units to millimeters
G90 ; use absolute coordinates
M82 ; use absolute distances for extrusion
G92 E0
; Filament gcode
;LAYER_CHANGE
;Z:0.3
;HEIGHT:0.3
G1 Z0.300 F7800.000
G1 E-2.00000 F2400.000
G92 E0
G1 X86.605 Y85.564 F7800.000
G1 E2.00000 F2400.000
;TYPE:Skirt
;WIDTH:0.42
G1 F1800.000
G1 X88.793 Y84.072 E2.11746
G1 X90.936 Y82.936 E2.22503
G1 X92.367 Y82.416 E2.29260
G1 X93.849 Y82.242 E2.35875
G1 X95.414 Y82.440 E2.42874
G1 X96.883 Y83.018 E2.49872
G1 X122.861 Y98.049 E3.82999
G1 X123.560 Y98.630 E3.87029
G1 X124.173 Y99.309 E3.91087
G1 X124.679 Y100.064 E3.95116
G1 X125.072 Y100.883 E3.99146
G1 X125.463 Y102.399 E4.06090
G1 X125.606 Y105.000 E4.17644
G1 X125.464 Y107.597 E4.29180
G1 X125.072 Y109.112 E4.36124
G1 X124.679 Y109.931 E4.40154
G1 X124.173 Y110.686 E4.44184
G1 X123.560 Y111.365 E4.48241
G1 X122.861 Y111.945 E4.52271
G1 X96.883 Y126.982 E5.85407
G1 X95.408 Y127.561 E5.92433
G1 X93.837 Y127.758 E5.99459
G1 X92.538 Y127.623 E6.05250
G1 X91.294 Y127.225 E6.11041
G1 X88.923 Y126.005 E6.22871
G1 X87.069 Y124.800 E6.32678
G1 X86.217 Y124.073 E6.37644
G1 X85.506 Y123.208 E6.42611
G1 X84.961 Y122.237 E6.47549
G1 X84.592 Y121.180 E6.52515
G1 X84.398 Y119.658 E6.59322
G1 X84.394 Y90.382 E7.89174
G1 X84.541 Y89.022 E7.95240
G1 X84.973 Y87.731 E8.01278
G1 X85.674 Y86.557 E8.07344
G1 X86.564 Y85.607 E8.13116
G1 X87.388 Y86.938 F7800.000
G1 F1800.000
G1 X88.914 Y85.827 E8.21491
G1 X89.708 Y85.337 E8.25629
G1 X90.843 Y84.713 E8.31377
G1 X92.106 Y84.110 E8.37580
G1 X93.250 Y83.824 E8.42814
G1 X94.444 Y83.825 E8.48111
G1 X95.927 Y84.259 E8.54963
G1 X121.870 Y99.237 E9.87833
G1 X123.005 Y100.320 E9.94792
G1 X123.453 Y101.046 E9.98576
G1 X123.769 Y101.819 E10.02280
G1 X124.000 Y103.496 E10.09788
G1 X124.051 Y105.080 E10.16820
G1 X123.999 Y106.518 E10.23202
G1 X123.768 Y108.181 E10.30645
G1 X123.453 Y108.954 E10.34348
G1 X123.005 Y109.679 E10.38131
G1 X121.870 Y110.762 E10.45090
G1 X95.950 Y125.728 E11.77846
G1 X94.916 Y126.091 E11.82706
G1 X93.800 Y126.216 E11.87688
G1 X92.123 Y125.899 E11.95255
G1 X90.857 Y125.294 E12.01480
G1 X89.719 Y124.670 E12.07237
G1 X88.899 Y124.164 E12.11509
G1 X87.201 Y122.880 E12.20950
G1 X86.727 Y122.256 E12.24428
G1 X86.350 Y121.565 E12.27917
G1 X86.030 Y120.583 E12.32502
G1 X85.949 Y90.023 E13.68047
G1 X86.259 Y88.658 E13.74257
G1 X86.745 Y87.717 E13.78955
G1 X87.349 Y86.985 E13.83166
G1 X87.615 Y87.213 F7800.000
G1 F1800.000
G1 X89.118 Y86.118 E13.91410
G1 X89.891 Y85.642 E13.95437
G1 X91.001 Y85.031 E14.01058
G1 X92.242 Y84.439 E14.07158
G1 X93.313 Y84.174 E14.12052
G1 X94.417 Y84.180 E14.16947
G1 X95.768 Y84.577 E14.23191
G1 X121.674 Y99.534 E15.55874
G1 X122.715 Y100.527 E15.62255
G1 X123.130 Y101.194 E15.65739
G1 X123.431 Y101.932 E15.69274
G1 X123.646 Y103.534 E15.76443
G1 X123.695 Y105.074 E15.83276
G1 X123.645 Y106.480 E15.89517
G1 X123.431 Y108.067 E15.96622
G1 X123.130 Y108.805 E16.00156
G1 X122.715 Y109.472 E16.03640
G1 X121.674 Y110.465 E16.10021
G1 X95.787 Y125.412 E17.42608
G1 X94.819 Y125.748 E17.47153
G1 X93.788 Y125.859 E17.51751
G1 X92.256 Y125.569 E17.58669
G1 X91.023 Y124.980 E17.64726
G1 X89.894 Y124.360 E17.70441
G1 X89.106 Y123.874 E17.74547
G1 X87.469 Y122.645 E17.83625
G1 X87.018 Y122.052 E17.86930
G1 X86.671 Y121.411 E17.90165
G1 X86.377 Y120.500 E17.94410
G1 X86.305 Y90.043 E19.29504
G1 X86.586 Y88.801 E19.35150
G1 X87.052 Y87.897 E19.39664
G1 X87.577 Y87.259 E19.43327
G1 X87.844 Y87.486 F7800.000
G1 F1800.000
G1 X89.321 Y86.410 E19.51435
G1 X90.066 Y85.951 E19.55312
G1 X91.168 Y85.346 E19.60891
G1 X92.379 Y84.768 E19.66844
G1 X93.336 Y84.530 E19.71217
G1 X94.343 Y84.529 E19.75683
G1 X95.609 Y84.896 E19.81529
G1 X121.478 Y99.832 E21.14021
G1 X122.425 Y100.734 E21.19823
G1 X122.819 Y101.369 E21.23138
G1 X123.092 Y102.044 E21.26369
G1 X123.293 Y103.571 E21.33201
G1 X123.339 Y105.067 E21.39840
G1 X123.292 Y106.442 E21.45942
G1 X123.092 Y107.956 E21.52713
G1 X122.819 Y108.631 E21.55943
G1 X122.425 Y109.265 E21.59257
G1 X121.478 Y110.167 E21.65058
G1 X95.624 Y125.095 E22.97475
G1 X94.723 Y125.405 E23.01702
G1 X93.778 Y125.503 E23.05916
G1 X92.388 Y125.238 E23.12190
G1 X91.190 Y124.666 E23.18079
G1 X90.069 Y124.050 E23.23751
G1 X89.312 Y123.584 E23.27695
G1 X87.736 Y122.409 E23.36412
G1 X87.324 Y121.870 E23.39422
G1 X86.992 Y121.256 E23.42519
G1 X86.724 Y120.418 E23.46421
G1 X86.660 Y90.062 E24.81064
G1 X86.927 Y88.903 E24.86340
G1 X87.340 Y88.106 E24.90321
G1 X87.806 Y87.533 E24.93599
G1 X88.073 Y87.759 F7800.000
G1 F1800.000
G1 X89.525 Y86.701 E25.01568
G1 X90.241 Y86.261 E25.05295
G1 X91.335 Y85.660 E25.10832
G1 X92.516 Y85.097 E25.16634
G1 X93.399 Y84.880 E25.20667
G1 X94.316 Y84.885 E25.24735
G1 X95.449 Y85.215 E25.29972
G1 X121.282 Y100.129 E26.62276
G1 X122.136 Y100.942 E26.67505
G1 X122.496 Y101.517 E26.70513
G1 X122.754 Y102.156 E26.73570
G1 X122.939 Y103.607 E26.80061
G1 X122.984 Y105.061 E26.86512
G1 X122.938 Y106.406 E26.92480
G1 X122.754 Y107.844 E26.98911
G1 X122.496 Y108.483 E27.01968
G1 X122.136 Y109.058 E27.04975
G1 X121.282 Y109.870 E27.10203
G1 X95.461 Y124.778 E28.42448
G1 X94.628 Y125.062 E28.46352
G1 X93.769 Y125.147 E28.50182
G1 X92.521 Y124.907 E28.55818
G1 X91.357 Y124.352 E28.61540
G1 X90.244 Y123.741 E28.67170
G1 X89.517 Y123.294 E28.70955
G1 X88.004 Y122.173 E28.79308
G1 X87.616 Y121.666 E28.82141
G1 X87.313 Y121.103 E28.84974
G1 X87.072 Y120.337 E28.88536
G1 X87.016 Y90.083 E30.22730
G1 X87.268 Y89.007 E30.27633
G1 X87.629 Y88.315 E30.31094
G1 X88.035 Y87.806 E30.33982
G1 X88.303 Y88.032 F7800.000
G1 F1800.000
G1 X89.729 Y86.993 E30.41808
G1 X90.416 Y86.571 E30.45384
G1 X91.502 Y85.974 E30.50880
G1 X92.652 Y85.425 E30.56534
G1 X93.422 Y85.236 E30.60048
G1 X94.243 Y85.234 E30.63691
G1 X95.291 Y85.534 E30.68525
G1 X121.086 Y100.427 E32.00639
G1 X121.846 Y101.150 E32.05293
G1 X122.186 Y101.692 E32.08129
G1 X122.415 Y102.266 E32.10871
G1 X122.585 Y103.642 E32.17024
G1 X122.628 Y105.055 E32.23292
G1 X122.584 Y106.370 E32.29130
G1 X122.415 Y107.734 E32.35224
G1 X122.186 Y108.308 E32.37966
G1 X121.846 Y108.850 E32.40802
G1 X121.086 Y109.573 E32.45455
G1 X95.298 Y124.462 E33.77531
G1 X94.573 Y124.710 E33.80933
G1 X93.760 Y124.790 E33.84556
G1 X92.654 Y124.576 E33.89553
G1 X91.523 Y124.037 E33.95107
G1 X90.419 Y123.431 E34.00696
G1 X89.722 Y123.002 E34.04326
G1 X88.270 Y121.936 E34.12317
G1 X87.922 Y121.484 E34.14846
G1 X87.635 Y120.950 E34.17536
G1 X87.419 Y120.258 E34.20753
G1 X87.372 Y90.104 E35.54500
G1 X87.609 Y89.111 E35.59026
G1 X87.919 Y88.521 E35.61983
G1 X88.266 Y88.079 E35.64476
G1 X88.534 Y88.304 F7800.000
G1 F1800.000
G1 X89.933 Y87.284 E35.72153
G1 X90.591 Y86.880 E35.75580
G1 X91.668 Y86.288 E35.81033
G1 X92.788 Y85.755 E35.86535
G1 X93.483 Y85.587 E35.89707
G1 X94.217 Y85.589 E35.92959
G1 X95.131 Y85.853 E35.97182
G1 X120.890 Y100.724 E37.29107
G1 X121.558 Y101.359 E37.33193
G1 X121.862 Y101.839 E37.35714
G1 X122.076 Y102.376 E37.38277
G1 X122.231 Y103.676 E37.44087
G1 X122.273 Y105.049 E37.50178
G1 X122.230 Y106.336 E37.55891
G1 X122.076 Y107.624 E37.61644
G1 X121.862 Y108.160 E37.64206
G1 X121.558 Y108.641 E37.66727
G1 X120.890 Y109.275 E37.70813
G1 X95.136 Y124.145 E39.02716
G1 X94.479 Y124.366 E39.05790
G1 X93.753 Y124.434 E39.09027
G1 X92.787 Y124.246 E39.13393
G1 X91.690 Y123.723 E39.18781
G1 X90.594 Y123.122 E39.24327
G1 X89.925 Y122.711 E39.27809
G1 X88.536 Y121.699 E39.35432
G1 X88.213 Y121.279 E39.37780
G1 X87.957 Y120.799 E39.40196
G1 X87.767 Y120.179 E39.43070
G1 X87.727 Y90.125 E40.76374
G1 X87.948 Y89.218 E40.80516
G1 X88.210 Y88.725 E40.82990
G1 X88.497 Y88.351 E40.85082
G1 X88.779 Y88.568 F7800.000
G1 F1800.000
G1 X90.135 Y87.577 E40.92530
G1 X90.766 Y87.190 E40.95813
G1 X91.835 Y86.602 E41.01224
G1 X92.923 Y86.084 E41.06571
G1 X93.543 Y85.938 E41.09394
G1 X94.188 Y85.944 E41.12256
G1 X94.972 Y86.171 E41.15876
G1 X120.694 Y101.022 E42.47614
G1 X121.269 Y101.567 E42.51130
G1 X121.552 Y102.014 E42.53477
G1 X121.736 Y102.483 E42.55712
G1 X121.876 Y103.709 E42.61183
G1 X121.917 Y105.043 E42.67102
G1 X121.876 Y106.303 E42.72696
G1 X121.736 Y107.516 E42.78111
G1 X121.552 Y107.985 E42.80346
G1 X121.269 Y108.432 E42.82692
G1 X120.694 Y108.977 E42.86208
G1 X94.974 Y123.827 E44.17937
G1 X94.388 Y124.022 E44.20676
G1 X93.748 Y124.078 E44.23528
G1 X92.919 Y123.915 E44.27271
G1 X91.857 Y123.409 E44.32492
G1 X90.769 Y122.812 E44.37997
G1 X90.127 Y122.418 E44.41334
G1 X88.802 Y121.461 E44.48587
G1 X88.504 Y121.075 E44.50750
G1 X88.280 Y120.649 E44.52886
G1 X88.115 Y120.102 E44.55419
G1 X88.083 Y90.146 E45.88288
G1 X88.274 Y89.364 E45.91860
G1 X88.502 Y88.929 E45.94036
G1 X88.743 Y88.615 E45.95792
G1 X89.025 Y88.832 F7800.000
G1 F1800.000
G1 X89.066 Y88.779 E45.96089
G1 X90.336 Y87.870 E46.03018
G1 X90.941 Y87.499 E46.06163
G1 X92.002 Y86.916 E46.11533
G1 X93.058 Y86.414 E46.16721
G1 X93.600 Y86.289 E46.19188
G1 X94.157 Y86.299 E46.21660
G1 X94.813 Y86.490 E46.24687
G1 X120.498 Y101.319 E47.56238
G1 X120.982 Y101.778 E47.59194
G1 X121.227 Y102.161 E47.61215
G1 X121.397 Y102.591 E47.63263
G1 X121.522 Y103.740 E47.68390
G1 X121.561 Y105.037 E47.74144
G1 X121.521 Y106.272 E47.79624
G1 X121.397 Y107.408 E47.84696
G1 X121.227 Y107.838 E47.86745
G1 X120.982 Y108.222 E47.88765
G1 X120.498 Y108.680 E47.91721
G1 X94.813 Y123.510 E49.23272
G1 X94.299 Y123.677 E49.25669
G1 X93.745 Y123.721 E49.28137
G1 X93.052 Y123.585 E49.31266
G1 X92.023 Y123.095 E49.36321
G1 X90.944 Y122.502 E49.41784
G1 X90.329 Y122.125 E49.44983
G1 X89.066 Y121.222 E49.51870
G1 X88.811 Y120.895 E49.53709
G1 X88.603 Y120.499 E49.55693
G1 X88.463 Y120.026 E49.57879
G1 X88.438 Y90.167 E50.90318
G1 X88.599 Y89.508 E50.93328
G1 X88.793 Y89.133 E50.95201
G1 X88.988 Y88.879 E50.96619
G1 X89.330 Y89.018 F7800.000
G1 F1800.000
G1 X90.537 Y88.164 E51.03178
G1 X91.116 Y87.809 E51.06192
G1 X92.168 Y87.230 E51.11519
G1 X93.192 Y86.744 E51.16546
G1 X93.654 Y86.642 E51.18647
G1 X94.124 Y86.654 E51.20732
G1 X94.653 Y86.808 E51.23176
G1 X120.302 Y101.617 E52.54541
G1 X120.694 Y101.988 E52.56934
G1 X120.918 Y102.337 E52.58775
G1 X121.056 Y102.696 E52.60479
G1 X121.168 Y103.770 E52.65269
G1 X121.206 Y105.031 E52.70865
G1 X121.167 Y106.242 E52.76237
G1 X121.056 Y107.303 E52.80973
G1 X120.918 Y107.662 E52.82677
G1 X120.694 Y108.012 E52.84518
G1 X120.302 Y108.382 E52.86911
G1 X94.652 Y123.192 E54.18282
G1 X94.213 Y123.332 E54.20327
G1 X93.744 Y123.365 E54.22413
G1 X93.185 Y123.254 E54.24939
G1 X92.190 Y122.781 E54.29828
G1 X91.118 Y122.192 E54.35249
G1 X90.529 Y121.831 E54.38315
G1 X89.330 Y120.982 E54.44831
G1 X89.102 Y120.690 E54.46477
G1 X88.927 Y120.352 E54.48165
G1 X88.812 Y119.952 E54.50009
G1 X88.794 Y90.188 E55.82026
G1 X88.925 Y89.653 E55.84472
G1 X89.101 Y89.312 E55.86176
G1 X89.293 Y89.066 E55.87558
G1 X89.571 Y89.286 F7800.000
G1 F1800.000
G1 X90.736 Y88.459 E55.93893
G1 X91.291 Y88.119 E55.96780
G1 X92.335 Y87.545 E56.02066
G1 X93.325 Y87.074 E56.06925
G1 X93.705 Y86.994 E56.08648
G1 X94.088 Y87.008 E56.10350
G1 X94.494 Y87.127 E56.12224
G1 X120.106 Y101.914 E57.43403
G1 X120.408 Y102.200 E57.45246
G1 X120.593 Y102.483 E57.46747
G1 X120.715 Y102.801 E57.48256
G1 X120.813 Y103.798 E57.52700
G1 X120.850 Y105.025 E57.58145
G1 X120.813 Y106.213 E57.63417
G1 X120.715 Y107.198 E57.67809
G1 X120.593 Y107.516 E57.69317
G1 X120.408 Y107.799 E57.70818
G1 X120.106 Y108.085 E57.72661
G1 X94.493 Y122.874 E59.03847
G1 X94.130 Y122.985 E59.05530
G1 X93.746 Y123.009 E59.07237
G1 X93.318 Y122.923 E59.09172
G1 X92.356 Y122.466 E59.13895
G1 X91.293 Y121.883 E59.19274
G1 X90.728 Y121.537 E59.22213
G1 X89.592 Y120.741 E59.28365
G1 X89.410 Y120.510 E59.29670
G1 X89.251 Y120.205 E59.31195
G1 X89.161 Y119.881 E59.32687
G1 X89.150 Y90.210 E60.64294
G1 X89.250 Y89.797 E60.66175
G1 X89.409 Y89.491 E60.67706
G1 X89.534 Y89.333 E60.68601
G1 X89.810 Y89.555 F7800.000
G1 F1800.000
G1 X89.851 Y89.504 E60.68894
G1 X90.934 Y88.754 E60.74735
G1 X91.466 Y88.428 E60.77501
G1 X92.502 Y87.859 E60.82745
G1 X93.459 Y87.405 E60.87443
G1 X93.714 Y87.350 E60.88601
G1 X94.053 Y87.363 E60.90106
G1 X94.334 Y87.445 E60.91405
G1 X119.910 Y102.212 E62.22398
G1 X120.122 Y102.412 E62.23689
G1 X120.284 Y102.660 E62.25005
G1 X120.374 Y102.901 E62.26145
G1 X120.458 Y103.814 E62.30211
G1 X120.495 Y105.020 E62.35560
G1 X120.458 Y106.186 E62.40738
G1 X120.374 Y107.098 E62.44799
G1 X120.284 Y107.339 E62.45939
G1 X120.122 Y107.587 E62.47255
G1 X119.910 Y107.787 E62.48546
G1 X94.334 Y122.555 E63.79540
G1 X94.052 Y122.638 E63.80845
G1 X93.751 Y122.653 E63.82180
G1 X93.451 Y122.593 E63.83539
G1 X92.514 Y122.147 E63.88141
G1 X91.468 Y121.573 E63.93432
G1 X90.926 Y121.241 E63.96251
G1 X89.852 Y120.497 E64.02049
G1 X89.717 Y120.329 E64.03003
G1 X89.576 Y120.059 E64.04354
G1 X89.510 Y119.813 E64.05485
G1 X89.505 Y90.231 E65.36695
G1 X89.576 Y89.942 E65.38012
G1 X89.716 Y89.671 E65.39366
G1 X89.772 Y89.602 E65.39761
G1 X89.901 Y90.087 F7800.000
G1 F1800.000
G1 X90.022 Y89.853 E65.40928
G1 X90.107 Y89.752 E65.41516
G1 X91.123 Y89.055 E65.46979
G1 X91.641 Y88.738 E65.49672
G1 X92.668 Y88.173 E65.54874
G1 X93.589 Y87.736 E65.59394
G1 X93.758 Y87.704 E65.60154
G1 X94.013 Y87.716 E65.61289
G1 X94.174 Y87.764 E65.62036
G1 X119.714 Y102.510 E66.92843
G1 X119.835 Y102.624 E66.93581
G1 X119.974 Y102.836 E66.94703
G1 X120.030 Y102.996 E66.95459
G1 X120.103 Y103.829 E66.99167
G1 X120.139 Y105.014 E67.04424
G1 X120.103 Y106.171 E67.09557
G1 X120.030 Y107.003 E67.13262
G1 X119.974 Y107.164 E67.14018
G1 X119.835 Y107.375 E67.15140
G1 X119.715 Y107.490 E67.15878
G1 X94.174 Y122.236 E68.46687
G1 X94.013 Y122.284 E68.47433
G1 X93.755 Y122.296 E68.48577
G1 X93.584 Y122.262 E68.49354
G1 X92.671 Y121.828 E68.53836
G1 X91.643 Y121.263 E68.59039
G1 X91.123 Y120.945 E68.61743
G1 X90.108 Y120.249 E68.67204
G1 X90.023 Y120.147 E68.67792
G1 X89.900 Y119.911 E68.68972
G1 X89.866 Y119.788 E68.69539
G1 X89.861 Y90.252 E70.00544
G1 X89.887 Y90.145 E70.01031
G1 X90.327 Y90.039 F7800.000
G1 F1800.000
G1 X91.312 Y89.356 E70.06351
G1 X91.816 Y89.047 E70.08970
G1 X92.835 Y88.487 E70.14129
G1 X93.721 Y88.067 E70.18476
G1 X94.015 Y88.083 E70.19783
G1 X119.519 Y102.807 E71.50404
G1 X119.678 Y103.051 E71.51695
G1 X119.747 Y103.845 E71.55234
G1 X119.783 Y105.008 E71.60395
G1 X119.747 Y106.155 E71.65482
G1 X119.665 Y106.986 E71.69188
G1 X119.519 Y107.192 E71.70309
G1 X94.015 Y121.917 E73.00931
G1 X93.716 Y121.932 E73.02257
G1 X92.829 Y121.510 E73.06617
G1 X91.818 Y120.954 E73.11732
G1 X91.319 Y120.648 E73.14327
G1 X90.356 Y119.994 E73.19490
G1 X90.217 Y119.727 E73.20828
G1 X90.217 Y90.273 E74.51469
G1 X90.299 Y90.092 E74.52350
G1 X90.611 Y90.263 F7800.000
G1 F1800.000
G1 X91.509 Y89.653 E74.57162
G1 X91.998 Y89.353 E74.59708
G1 X92.996 Y88.804 E74.64760
G1 X93.807 Y88.418 E74.68742
G1 X93.893 Y88.423 E74.69123
G1 X119.286 Y103.083 E75.99179
G1 X119.332 Y103.154 E75.99555
G1 X119.392 Y103.860 E76.02696
G1 X119.428 Y105.003 E76.07767
G1 X119.392 Y106.140 E76.12814
G1 X119.332 Y106.845 E76.15951
G1 X119.286 Y106.916 E76.16328
G1 X93.893 Y121.577 E77.46385
G1 X93.809 Y121.582 E77.46758
G1 X92.995 Y121.195 E77.50752
G1 X91.993 Y120.644 E77.55824
G1 X91.509 Y120.347 E77.58345
G1 X90.612 Y119.738 E77.63156
G1 X90.572 Y119.662 E77.63534
