; generated by PrusaSlicer 2.4.2+win64 on 2022-06-12 at 04:05:43 UTC

; 

; external perimeters extrusion width = 0.45mm
; perimeters extrusion width = 0.45mm
; infill extrusion width = 0.45mm
; solid infill extrusion width = 0.45mm
; top infill extrusion width = 0.40mm
; first layer extrusion width = 0.42mm

M107
M190 S75 ; set bed temperature and wait for it to be reached
M104 S240 ; set temperature
;TYPE:Custom
G28 ; home all axes
G1 Z5 F5000 ; lift nozzle
M109 S240 ; set temperature and wait for it to be reached
G21 ; set units to millimeters
G90 ; use absolute coordinates
M82 ; use absolute distances for extrusion
G92 E0
; Filament gcode
M107
;LAYER_CHANGE
;Z:0.35
;HEIGHT:0.35
G1 Z.35 F7800
G1 E-2 F2400
G92 E0
G1 X13.54 Y14.854 F7800
G1 E2 F2400
;TYPE:Skirt/Brim
;WIDTH:0.42
G1 F1800
G1 X15.282 Y13.44 E2.11262
G1 X18.347 Y12.65 E2.27146
G1 X40.347 Y12.65 E3.37555
G1 X41.204 Y12.708 E3.41867
G1 X129.204 Y24.708 E7.8759
G1 X131.339 Y25.4 E7.98852
G1 X133.099 Y26.792 E8.10114
G1 X134.265 Y28.709 E8.21376
G1 X134.692 Y30.995 E8.33047
G1 X134.692 Y59.995 E9.78587
G1 X134.295 Y62.204 E9.89849
G1 X133.154 Y64.136 E10.01111
G1 X131.412 Y65.551 E10.12373
G1 X128.347 Y66.34 E10.28257
G1 X18.347 Y66.34 E15.80302
G1 X16.138 Y65.943 E15.91564
G1 X14.206 Y64.802 E16.02826
G1 X12.791 Y63.06 E16.14088
G1 X12.002 Y59.995 E16.29971
G1 X12.002 Y18.995 E18.35734
G1 X12.399 Y16.786 E18.46996
G1 X13.509 Y14.906 E18.57957
G1 E16.57957 F2400
G92 E0
G1 X19.247 Y19.895 F7800
G1 E2 F2400
;TYPE:Perimeter
G1 F1800
G1 X24.447 Y19.895 E2.26099
G1 X24.447 Y31.895 E2.86322
G1 X34.247 Y31.895 E3.35502
G1 X34.247 Y19.895 E3.95725
G1 X39.447 Y19.895 E4.21824
G1 X39.447 Y31.895 E4.82047
G1 X127.447 Y31.895 E9.23683
G1 X127.447 Y59.095 E10.60191
G1 X96.747 Y59.095 E12.14264
G1 X96.747 Y40.095 E13.09617
G1 X49.947 Y40.095 E15.44485
G1 X49.947 Y59.095 E16.39838
G1 X19.247 Y59.095 E17.93911
G1 X19.247 Y19.955 E19.90341
G1 X18.902 Y19.55 F7800
G1 F1800
G1 X24.792 Y19.55 E20.19902
G1 X24.792 Y31.55 E20.80125
G1 X33.902 Y31.55 E21.25843
G1 X33.902 Y19.55 E21.86066
G1 X39.792 Y19.55 E22.15627
G1 X39.792 Y31.55 E22.7585
G1 X127.792 Y31.55 E27.17486
G1 X127.792 Y59.44 E28.57456
G1 X96.402 Y59.44 E30.1499
G1 X96.402 Y40.44 E31.10344
G1 X50.292 Y40.44 E33.4175
G1 X50.292 Y59.44 E34.37103
G1 X18.902 Y59.44 E35.94638
G1 X18.902 Y19.61 E37.94529
G1 X18.557 Y19.205 F7800
;TYPE:External perimeter
G1 F1800
G1 X25.137 Y19.205 E38.27552
G1 X25.137 Y31.205 E38.87775
G1 X33.557 Y31.205 E39.30031
G1 X33.557 Y19.205 E39.90254
G1 X40.137 Y19.205 E40.23277
G1 X40.137 Y31.205 E40.835
G1 X128.137 Y31.205 E45.25136
G1 X128.137 Y59.785 E46.68567
G1 X96.057 Y59.785 E48.29564
G1 X96.057 Y40.785 E49.24917
G1 X50.637 Y40.785 E51.52861
G1 X50.637 Y59.785 E52.48215
G1 X18.557 Y59.785 E54.09211
G1 X18.557 Y19.265 E56.12564
G1 X18.939 Y19.324 F7800
G1 E54.12564 F2400
G92 E0
G1 X127.343 Y32.698 F7800
G1 E2 F2400
;TYPE:Solid infill
;WIDTH:0.421122
G1 F1800
G1 X126.799 Y32.154 E2.03876
G1 X126.31 Y32.154 E2.0634
G1 X127.188 Y33.032 E2.12595
G1 X127.188 Y33.521 E2.15059
G1 X125.82 Y32.154 E2.24799
G1 X125.331 Y32.154 E2.27263
G1 X127.188 Y34.011 E2.40487
G1 X127.188 Y34.5 E2.4295
G1 X124.842 Y32.154 E2.59659
G1 X124.352 Y32.154 E2.62122
G1 X127.188 Y34.989 E2.82315
G1 X127.188 Y35.479 E2.84779
G1 X123.863 Y32.154 E3.08455
G1 X123.374 Y32.154 E3.10919
G1 X127.188 Y35.968 E3.3808
G1 X127.188 Y36.457 E3.40544
G1 X122.884 Y32.154 E3.71189
G1 X122.395 Y32.154 E3.73653
G1 X127.188 Y36.947 E4.07783
G1 X127.188 Y37.436 E4.10246
G1 X121.906 Y32.154 E4.4786
G1 X121.416 Y32.154 E4.50324
G1 X127.188 Y37.925 E4.91422
G1 X127.188 Y38.415 E4.93886
G1 X120.927 Y32.154 E5.38468
G1 X120.438 Y32.154 E5.40932
G1 X127.188 Y38.904 E5.88999
G1 X127.188 Y39.393 E5.91462
G1 X119.948 Y32.154 E6.43013
G1 X119.459 Y32.154 E6.45477
G1 X127.188 Y39.883 E7.00512
G1 X127.188 Y40.372 E7.02976
G1 X118.97 Y32.154 E7.61496
G1 X118.48 Y32.154 E7.63959
G1 X127.188 Y40.861 E8.25963
G1 X127.188 Y41.351 E8.28427
G1 X117.991 Y32.154 E8.93915
G1 X117.502 Y32.154 E8.96379
G1 X127.188 Y41.84 E9.65351
G1 X127.188 Y42.329 E9.67815
G1 X117.012 Y32.154 E10.40271
G1 X116.523 Y32.154 E10.42735
G1 X127.188 Y42.819 E11.18676
G1 X127.188 Y43.308 E11.2114
G1 X116.034 Y32.154 E12.00565
G1 X115.544 Y32.154 E12.03028
G1 X127.188 Y43.797 E12.85938
G1 X127.188 Y44.287 E12.88402
G1 X115.055 Y32.154 E13.74795
G1 X114.566 Y32.154 E13.77259
G1 X127.188 Y44.776 E14.67137
G1 X127.188 Y45.265 E14.69601
G1 X114.076 Y32.154 E15.62963
G1 X113.587 Y32.154 E15.65427
G1 X127.188 Y45.755 E16.62273
G1 X127.188 Y46.244 E16.64737
G1 X113.098 Y32.154 E17.65068
G1 X112.608 Y32.154 E17.67531
G1 X127.188 Y46.733 E18.71346
G1 X127.188 Y47.223 E18.7381
G1 X112.119 Y32.154 E19.81109
G1 X111.63 Y32.154 E19.83573
G1 X127.188 Y47.712 E20.94357
G1 X127.188 Y48.201 E20.9682
G1 X111.14 Y32.154 E22.11088
G1 X110.651 Y32.154 E22.13552
G1 X127.188 Y48.691 E23.31304
G1 X127.188 Y49.18 E23.33768
G1 X110.162 Y32.154 E24.55004
G1 X109.672 Y32.154 E24.57468
G1 X127.188 Y49.669 E25.82189
G1 X127.188 Y50.159 E25.84652
G1 X109.183 Y32.154 E27.12857
G1 X108.694 Y32.154 E27.15321
G1 X127.188 Y50.648 E28.4701
G1 X127.188 Y51.137 E28.49474
G1 X108.204 Y32.154 E29.84647
G1 X107.715 Y32.154 E29.87111
G1 X127.188 Y51.627 E31.25769
G1 X127.188 Y52.116 E31.28232
G1 X107.226 Y32.154 E32.70374
G1 X106.736 Y32.154 E32.72838
G1 X127.188 Y52.605 E34.18464
G1 X127.188 Y53.095 E34.20928
G1 X106.247 Y32.154 E35.70039
G1 X105.758 Y32.154 E35.72503
G1 X127.188 Y53.584 E37.25097
G1 X127.188 Y54.073 E37.27561
G1 X105.268 Y32.154 E38.8364
G1 X104.779 Y32.154 E38.86104
G1 X127.188 Y54.563 E40.45667
G1 X127.188 Y55.052 E40.48131
G1 X104.29 Y32.154 E42.11179
G1 X103.8 Y32.154 E42.13642
G1 X127.188 Y55.541 E43.80174
G1 X127.188 Y56.031 E43.82638
G1 X103.311 Y32.154 E45.52654
G1 X102.822 Y32.154 E45.55118
G1 X127.188 Y56.52 E47.28618
G1 X127.188 Y57.009 E47.31082
G1 X102.332 Y32.154 E49.08067
G1 X101.843 Y32.154 E49.1053
G1 X127.188 Y57.499 E50.90999
G1 X127.188 Y57.988 E50.93463
G1 X101.354 Y32.154 E52.77416
G1 X100.864 Y32.154 E52.7988
G1 X127.188 Y58.477 E54.67318
G1 X127.188 Y58.837 E54.69127
G1 X127.058 Y58.837 E54.69781
G1 X100.375 Y32.154 E56.59777
G1 X99.886 Y32.154 E56.62241
G1 X126.569 Y58.837 E58.52237
G1 X126.08 Y58.837 E58.547
G1 X99.396 Y32.154 E60.44696
G1 X98.907 Y32.154 E60.4716
G1 X125.59 Y58.837 E62.37156
G1 X125.101 Y58.837 E62.39619
G1 X98.418 Y32.154 E64.29615
G1 X97.928 Y32.154 E64.32079
G1 X124.612 Y58.837 E66.22075
G1 X124.122 Y58.837 E66.24538
G1 X97.439 Y32.154 E68.14534
G1 X96.95 Y32.154 E68.16998
G1 X123.633 Y58.837 E70.06994
G1 X123.144 Y58.837 E70.09457
G1 X96.46 Y32.154 E71.99453
G1 X95.971 Y32.154 E72.01917
G1 X122.654 Y58.837 E73.91913
G1 X122.165 Y58.837 E73.94377
G1 X95.482 Y32.154 E75.84372
G1 X94.992 Y32.154 E75.86836
G1 X121.676 Y58.837 E77.76832
G1 X121.186 Y58.837 E77.79296
G1 X94.503 Y32.154 E79.69291
G1 X94.014 Y32.154 E79.71755
G1 X120.697 Y58.837 E81.61751
G1 X120.208 Y58.837 E81.64215
G1 X93.524 Y32.154 E83.5421
G1 X93.035 Y32.154 E83.56674
G1 X119.718 Y58.837 E85.4667
G1 X119.229 Y58.837 E85.49134
G1 X92.546 Y32.154 E87.39129
G1 X92.056 Y32.154 E87.41593
G1 X118.74 Y58.837 E89.31589
G1 X118.25 Y58.837 E89.34053
G1 X91.567 Y32.154 E91.24048
G1 X91.078 Y32.154 E91.26512
G1 X117.761 Y58.837 E93.16508
G1 X117.272 Y58.837 E93.18972
G1 X90.588 Y32.154 E95.08967
G1 X90.099 Y32.154 E95.11431
G1 X116.782 Y58.837 E97.01427
G1 X116.293 Y58.837 E97.03891
G1 X89.61 Y32.154 E98.93887
G1 X89.12 Y32.154 E98.9635
G1 X115.804 Y58.837 E100.86346
G1 X115.314 Y58.837 E100.8881
G1 X97.005 Y40.528 E102.19179
G1 X97.005 Y41.017 E102.21642
G1 X114.825 Y58.837 E103.48527
G1 X114.336 Y58.837 E103.50991
G1 X97.005 Y41.506 E104.74391
G1 X97.005 Y41.996 E104.76855
G1 X113.846 Y58.837 E105.9677
G1 X113.357 Y58.837 E105.99234
G1 X97.005 Y42.485 E107.15666
G1 X97.005 Y42.974 E107.1813
G1 X112.868 Y58.837 E108.31077
G1 X112.378 Y58.837 E108.33541
G1 X97.005 Y43.464 E109.43004
G1 X97.005 Y43.953 E109.45468
G1 X111.889 Y58.837 E110.51447
G1 X111.4 Y58.837 E110.5391
G1 X97.005 Y44.442 E111.56405
G1 X97.005 Y44.932 E111.58869
G1 X110.91 Y58.837 E112.57879
G1 X110.421 Y58.837 E112.60343
G1 X97.005 Y45.421 E113.55869
G1 X97.005 Y45.91 E113.58333
G1 X109.932 Y58.837 E114.50374
G1 X109.442 Y58.837 E114.52838
G1 X97.005 Y46.4 E115.41396
G1 X97.005 Y46.889 E115.43859
G1 X108.953 Y58.837 E116.28933
G1 X108.464 Y58.837 E116.31396
G1 X97.005 Y47.378 E117.12985
G1 X97.005 Y47.868 E117.15449
G1 X107.974 Y58.837 E117.93554
G1 X107.485 Y58.837 E117.96018
G1 X97.005 Y48.357 E118.70638
G1 X97.005 Y48.846 E118.73102
G1 X106.996 Y58.837 E119.44238
G1 X106.506 Y58.837 E119.46702
G1 X97.005 Y49.336 E120.14354
G1 X97.005 Y49.825 E120.16817
G1 X106.017 Y58.837 E120.80985
G1 X105.528 Y58.837 E120.83449
G1 X97.005 Y50.314 E121.44132
G1 X97.005 Y50.804 E121.46596
G1 X105.038 Y58.837 E122.03795
G1 X104.549 Y58.837 E122.06259
G1 X97.005 Y51.293 E122.59974
G1 X97.005 Y51.782 E122.62437
G1 X104.06 Y58.837 E123.12668
G1 X103.57 Y58.837 E123.15132
G1 X97.005 Y52.272 E123.61878
G1 X97.005 Y52.761 E123.64342
G1 X103.081 Y58.837 E124.07604
G1 X102.592 Y58.837 E124.10067
G1 X97.005 Y53.25 E124.49845
G1 X97.005 Y53.74 E124.52309
G1 X102.102 Y58.837 E124.88602
G1 X101.613 Y58.837 E124.91066
G1 X97.005 Y54.229 E125.23875
G1 X97.005 Y54.718 E125.26339
G1 X101.124 Y58.837 E125.55664
G1 X100.634 Y58.837 E125.58128
G1 X97.005 Y55.208 E125.83968
G1 X97.005 Y55.697 E125.86432
G1 X100.145 Y58.837 E126.08788
G1 X99.656 Y58.837 E126.11252
G1 X97.005 Y56.186 E126.30124
G1 X97.005 Y56.676 E126.32588
G1 X99.166 Y58.837 E126.47976
G1 X98.677 Y58.837 E126.5044
G1 X97.005 Y57.165 E126.62343
G1 X97.005 Y57.654 E126.64807
G1 X98.188 Y58.837 E126.73226
G1 X97.698 Y58.837 E126.7569
G1 X97.005 Y58.144 E126.80625
G1 X97.005 Y58.633 E126.83089
G1 X97.364 Y58.992 E126.85645
G1 E124.85645 F2400
G92 E0
G1 X96.469 Y39.992 F7800
G1 E2 F2400
G1 F1800
G1 X88.631 Y32.154 E2.55812
G1 X88.142 Y32.154 E2.58276
G1 X95.825 Y39.837 E3.12984
G1 X95.336 Y39.837 E3.15447
G1 X87.652 Y32.154 E3.70155
G1 X87.163 Y32.154 E3.72618
G1 X94.846 Y39.837 E4.27326
G1 X94.357 Y39.837 E4.2979
G1 X86.674 Y32.154 E4.84497
G1 X86.184 Y32.154 E4.86961
G1 X93.868 Y39.837 E5.41668
G1 X93.378 Y39.837 E5.44132
G1 X85.695 Y32.154 E5.98839
G1 X85.206 Y32.154 E6.01303
G1 X92.889 Y39.837 E6.5601
G1 X92.4 Y39.837 E6.58474
G1 X84.716 Y32.154 E7.13181
G1 X84.227 Y32.154 E7.15645
G1 X91.91 Y39.837 E7.70352
G1 X91.421 Y39.837 E7.72816
G1 X83.738 Y32.154 E8.27524
G1 X83.248 Y32.154 E8.29987
G1 X90.932 Y39.837 E8.84695
G1 X90.442 Y39.837 E8.87158
G1 X82.759 Y32.154 E9.41866
G1 X82.27 Y32.154 E9.44329
G1 X89.953 Y39.837 E9.99037
G1 X89.464 Y39.837 E10.01501
G1 X81.78 Y32.154 E10.56208
G1 X81.291 Y32.154 E10.58672
G1 X88.974 Y39.837 E11.13379
G1 X88.485 Y39.837 E11.15843
G1 X80.802 Y32.154 E11.7055
G1 X80.312 Y32.154 E11.73014
G1 X87.996 Y39.837 E12.27721
G1 X87.506 Y39.837 E12.30185
G1 X79.823 Y32.154 E12.84892
G1 X79.334 Y32.154 E12.87356
G1 X87.017 Y39.837 E13.42063
G1 X86.528 Y39.837 E13.44527
G1 X78.844 Y32.154 E13.99235
G1 X78.355 Y32.154 E14.01698
G1 X86.038 Y39.837 E14.56406
G1 X85.549 Y39.837 E14.58869
G1 X77.866 Y32.154 E15.13577
G1 X77.376 Y32.154 E15.16041
G1 X85.06 Y39.837 E15.70748
G1 X84.57 Y39.837 E15.73212
G1 X76.887 Y32.154 E16.27919
G1 X76.398 Y32.154 E16.30383
G1 X84.081 Y39.837 E16.8509
G1 X83.592 Y39.837 E16.87554
G1 X75.908 Y32.154 E17.42261
G1 X75.419 Y32.154 E17.44725
G1 X83.102 Y39.837 E17.99432
G1 X82.613 Y39.837 E18.01896
G1 X74.93 Y32.154 E18.56603
G1 X74.44 Y32.154 E18.59067
G1 X82.124 Y39.837 E19.13775
G1 X81.634 Y39.837 E19.16238
G1 X73.951 Y32.154 E19.70946
G1 X73.462 Y32.154 E19.73409
G1 X81.145 Y39.837 E20.28117
G1 X80.656 Y39.837 E20.30581
G1 X72.972 Y32.154 E20.85288
G1 X72.483 Y32.154 E20.87752
G1 X80.166 Y39.837 E21.42459
G1 X79.677 Y39.837 E21.44923
G1 X71.994 Y32.154 E21.9963
G1 X71.504 Y32.154 E22.02094
G1 X79.188 Y39.837 E22.56801
G1 X78.698 Y39.837 E22.59265
G1 X71.015 Y32.154 E23.13972
G1 X70.526 Y32.154 E23.16436
G1 X78.209 Y39.837 E23.71143
G1 X77.72 Y39.837 E23.73607
G1 X70.036 Y32.154 E24.28315
G1 X69.547 Y32.154 E24.30778
G1 X77.23 Y39.837 E24.85486
G1 X76.741 Y39.837 E24.87949
G1 X69.058 Y32.154 E25.42657
G1 X68.568 Y32.154 E25.45121
G1 X76.252 Y39.837 E25.99828
G1 X75.762 Y39.837 E26.02292
G1 X68.079 Y32.154 E26.56999
G1 X67.59 Y32.154 E26.59463
G1 X75.273 Y39.837 E27.1417
G1 X74.784 Y39.837 E27.16634
G1 X67.1 Y32.154 E27.71341
G1 X66.611 Y32.154 E27.73805
G1 X74.294 Y39.837 E28.28512
G1 X73.805 Y39.837 E28.30976
G1 X66.122 Y32.154 E28.85683
G1 X65.632 Y32.154 E28.88147
G1 X73.316 Y39.837 E29.42855
G1 X72.826 Y39.837 E29.45318
G1 X65.143 Y32.154 E30.00026
G1 X64.654 Y32.154 E30.02489
G1 X72.337 Y39.837 E30.57197
G1 X71.848 Y39.837 E30.5966
G1 X64.164 Y32.154 E31.14368
G1 X63.675 Y32.154 E31.16832
G1 X71.358 Y39.837 E31.71539
G1 X70.869 Y39.837 E31.74003
G1 X63.186 Y32.154 E32.2871
G1 X62.696 Y32.154 E32.31174
G1 X70.38 Y39.837 E32.85881
G1 X69.89 Y39.837 E32.88345
G1 X62.207 Y32.154 E33.43052
G1 X61.718 Y32.154 E33.45516
G1 X69.401 Y39.837 E34.00223
G1 X68.912 Y39.837 E34.02687
G1 X61.228 Y32.154 E34.57394
G1 X60.739 Y32.154 E34.59858
G1 X68.422 Y39.837 E35.14566
G1 X67.933 Y39.837 E35.17029
G1 X60.25 Y32.154 E35.71737
G1 X59.76 Y32.154 E35.742
G1 X67.444 Y39.837 E36.28908
G1 X66.954 Y39.837 E36.31372
G1 X59.271 Y32.154 E36.86079
G1 X58.782 Y32.154 E36.88543
G1 X66.465 Y39.837 E37.4325
G1 X65.976 Y39.837 E37.45714
G1 X58.292 Y32.154 E38.00421
G1 X57.803 Y32.154 E38.02885
G1 X65.486 Y39.837 E38.57592
G1 X64.997 Y39.837 E38.60056
G1 X57.314 Y32.154 E39.14763
G1 X56.824 Y32.154 E39.17227
G1 X64.508 Y39.837 E39.71934
G1 X64.018 Y39.837 E39.74398
G1 X56.335 Y32.154 E40.29106
G1 X55.846 Y32.154 E40.31569
G1 X63.529 Y39.837 E40.86277
G1 X63.04 Y39.837 E40.8874
G1 X55.356 Y32.154 E41.43448
G1 X54.867 Y32.154 E41.45911
G1 X62.55 Y39.837 E42.00619
G1 X62.061 Y39.837 E42.03083
G1 X54.378 Y32.154 E42.5779
G1 X53.888 Y32.154 E42.60254
G1 X61.572 Y39.837 E43.14961
G1 X61.082 Y39.837 E43.17425
G1 X53.399 Y32.154 E43.72132
G1 X52.91 Y32.154 E43.74596
G1 X60.593 Y39.837 E44.29303
G1 X60.104 Y39.837 E44.31767
G1 X52.42 Y32.154 E44.86474
G1 X51.931 Y32.154 E44.88938
G1 X59.614 Y39.837 E45.43645
G1 X59.125 Y39.837 E45.46109
G1 X51.442 Y32.154 E46.00817
G1 X50.952 Y32.154 E46.0328
G1 X58.636 Y39.837 E46.57988
G1 X58.146 Y39.837 E46.60451
G1 X50.463 Y32.154 E47.15159
G1 X49.974 Y32.154 E47.17623
G1 X57.657 Y39.837 E47.7233
G1 X57.168 Y39.837 E47.74794
G1 X49.484 Y32.154 E48.29501
G1 X48.995 Y32.154 E48.31965
G1 X56.678 Y39.837 E48.86672
G1 X56.189 Y39.837 E48.89136
G1 X48.506 Y32.154 E49.43843
G1 X48.016 Y32.154 E49.46307
G1 X55.7 Y39.837 E50.01014
G1 X55.21 Y39.837 E50.03478
G1 X47.527 Y32.154 E50.58185
G1 X47.038 Y32.154 E50.60649
G1 X54.721 Y39.837 E51.15357
G1 X54.232 Y39.837 E51.1782
G1 X46.548 Y32.154 E51.72528
G1 X46.059 Y32.154 E51.74991
G1 X53.742 Y39.837 E52.29699
G1 X53.253 Y39.837 E52.32162
G1 X45.57 Y32.154 E52.8687
G1 X45.08 Y32.154 E52.89334
G1 X52.764 Y39.837 E53.44041
G1 X52.274 Y39.837 E53.46505
G1 X44.591 Y32.154 E54.01212
G1 X44.102 Y32.154 E54.03676
G1 X51.785 Y39.837 E54.58383
G1 X51.296 Y39.837 E54.60847
G1 X43.612 Y32.154 E55.15554
G1 X43.123 Y32.154 E55.18018
G1 X50.806 Y39.837 E55.72725
G1 X50.317 Y39.837 E55.75189
G1 X42.634 Y32.154 E56.29896
G1 X42.144 Y32.154 E56.3236
G1 X49.828 Y39.837 E56.87068
G1 X49.688 Y39.837 E56.87769
G1 X49.688 Y40.187 E56.89531
G1 X41.655 Y32.154 E57.46731
G1 X41.166 Y32.154 E57.49195
G1 X49.688 Y40.676 E58.09879
G1 X49.688 Y41.165 E58.12343
G1 X40.676 Y32.154 E58.76511
G1 X40.187 Y32.154 E58.78975
G1 X49.688 Y41.655 E59.46628
G1 X49.688 Y42.144 E59.49092
G1 X39.543 Y31.998 E60.21334
G1 E58.21334 F2400
G92 E0
G1 X39.343 Y20.545 F7800
G1 E2 F2400
G1 F1800
G1 X38.952 Y20.154 E2.02785
G1 X38.463 Y20.154 E2.05248
G1 X39.188 Y20.879 E2.10412
G1 X39.188 Y21.368 E2.12876
G1 X37.974 Y20.154 E2.21524
G1 X37.484 Y20.154 E2.23987
G1 X39.188 Y21.857 E2.3612
G1 X39.188 Y22.347 E2.38583
G1 X36.995 Y20.154 E2.542
